X: 1
T: Clydeside Lassies Reel
R: reel
Z: John Chambers <jc:trillian.mit.edu> 2002-12-06
M: C|
L: 1/8
K: F
B | "F"AFcF dFcF |     AFcF "C7"ABcB | "F"AFcF dFcA | "Gm"BAGA "C7"Bcd :|
e | "F"fgag f2cf | "Gm"gfga "C7"baga | "F"fgag fcAc | "Gm"BAGA "C7"Bcd |]
e | "F"fgag f2cf | "Gm"gfga "C7"baga | "F"fgaf gefc | "Gm"BAGA "C7"Bcd |]
